X: 39358
T: Tame Her When Da Snaw Comes
R: reel
M: 4/4
K: Gmajor
gfed egB2|AGAB AGAB|gfed egB2|AGAB G2G2:|
|:G2G2 EGDE|G2G2 AcBA|G2G2 EGDE|GBAF G2G2:|
|:gfed egB2|AGAB AGAB|gfed egB2|AGAB G2G2:|
|:EGDG EGD2|DGAB cBAG|EGDG EGD2|GBAF G2G2:|

